Numix-GalliumOS/64/mimetypes/application-vnd.ms-cab-compressed.svg

<svg xmlns="http://www.w3.org/2000/svg" xmlns:xlink="http://www.w3.org/1999/xlink" width="64px" height="64px" viewBox="0 0 64 64" version="1.1">
<g id="surface1">
<path style=" stroke:none;fill-rule:nonzero;fill:rgb(75.686275%,58.431373%,32.54902%);fill-opacity:1;" d="M 10.671875 0 C 9.296875 0 8 1.355469 8 2.789062 L 8 61.210938 C 8 62.566406 9.375 64 10.671875 64 L 53.328125 64 C 54.625 64 56 62.566406 56 61.210938 L 56 18 L 38 0 Z M 10.671875 0 "/>
<path style=" stroke:none;fill-rule:nonzero;fill:rgb(0%,0%,0%);fill-opacity:0.196078;" d="M 8 48 L 8 61.335938 C 8 62.632812 9.375 64 10.664062 64 L 53.335938 64 C 54.625 64 56 62.632812 56 61.335938 L 56 48 Z M 8 48 "/>
<path style=" stroke:none;fill-rule:nonzero;fill:rgb(0%,0%,0%);fill-opacity:0.196078;" d="M 42 18 L 56 32 L 56 18 Z M 42 18 "/>
<path style=" stroke:none;fill-rule:nonzero;fill:rgb(100%,100%,100%);fill-opacity:1;" d="M 23.222656 62 C 21.527344 62 20.238281 61.515625 19.34375 60.539062 C 18.449219 59.574219 18 58.195312 18 56.398438 C 18 55.511719 18.140625 54.71875 18.410156 54.027344 C 18.679688 53.332031 19.058594 52.75 19.535156 52.273438 C 20.027344 51.789062 20.609375 51.429688 21.265625 51.183594 C 21.9375 50.929688 22.667969 50.804688 23.453125 50.804688 C 23.890625 50.804688 24.265625 50.835938 24.601562 50.902344 C 24.953125 50.960938 25.257812 51.035156 25.511719 51.117188 C 25.773438 51.199219 25.988281 51.28125 26.160156 51.371094 C 26.339844 51.46875 26.472656 51.535156 26.5625 51.585938 L 25.9375 53.28125 C 25.644531 53.109375 25.28125 52.960938 24.855469 52.847656 C 24.4375 52.722656 23.960938 52.660156 23.421875 52.660156 C 23.042969 52.660156 22.675781 52.722656 22.3125 52.847656 C 21.960938 52.960938 21.648438 53.167969 21.363281 53.453125 C 21.09375 53.734375 20.863281 54.109375 20.683594 54.578125 C 20.507812 55.054688 20.425781 55.644531 20.425781 56.347656 C 20.425781 57.570312 20.664062 58.515625 21.125 59.171875 C 21.609375 59.820312 22.386719 60.144531 23.453125 60.144531 C 24.078125 60.144531 24.59375 60.082031 24.988281 59.957031 C 25.40625 59.828125 25.734375 59.703125 25.980469 59.574219 L 26.585938 61.253906 C 26.25 61.441406 25.792969 61.613281 25.210938 61.777344 C 24.636719 61.925781 23.980469 62 23.222656 62 "/>
<path style=" stroke:none;fill-rule:nonzero;fill:rgb(100%,100%,100%);fill-opacity:0.392157;" d="M 38 0 L 55.984375 18 L 40.757812 18 C 39.410156 18 38 16.574219 38 15.226562 Z M 38 0 "/>
<path style=" stroke:none;fill-rule:nonzero;fill:rgb(100%,100%,100%);fill-opacity:1;" d="M 34.15625 61.777344 L 33.589844 59.292969 L 30.390625 59.292969 L 29.84375 61.777344 L 27.359375 61.777344 C 27.933594 59.664062 28.507812 57.734375 29.089844 56.003906 C 29.671875 54.257812 30.238281 52.601562 30.777344 51.042969 L 33.378906 51.042969 C 33.953125 52.617188 34.507812 54.28125 35.066406 56.054688 C 35.632812 57.808594 36.191406 59.71875 36.714844 61.777344 L 34.15625 61.777344 M 32.015625 53.125 C 31.894531 53.527344 31.769531 53.914062 31.648438 54.28125 C 31.550781 54.644531 31.441406 55.003906 31.34375 55.363281 C 31.246094 55.710938 31.15625 56.0625 31.066406 56.414062 C 30.992188 56.777344 30.910156 57.144531 30.835938 57.53125 L 33.179688 57.53125 C 33.105469 57.144531 33.023438 56.777344 32.953125 56.414062 C 32.878906 56.0625 32.777344 55.710938 32.679688 55.363281 C 32.589844 55.003906 32.484375 54.644531 32.367188 54.28125 C 32.261719 53.914062 32.148438 53.527344 32.015625 53.125 "/>
<path style=" stroke:none;fill-rule:evenodd;fill:rgb(97.647059%,97.647059%,97.647059%);fill-opacity:1;" d="M 18 0 L 24 0 L 24 6 L 18 6 Z M 18 0 "/>
<path style=" stroke:none;fill-rule:nonzero;fill:rgb(100%,100%,100%);fill-opacity:1;" d="M 46 58.53125 C 46 59.179688 45.878906 59.71875 45.632812 60.164062 C 45.386719 60.589844 45.046875 60.933594 44.621094 61.203125 C 44.203125 61.457031 43.703125 61.640625 43.121094 61.753906 C 42.554688 61.859375 41.941406 61.910156 41.277344 61.910156 C 40.75 61.910156 40.203125 61.886719 39.628906 61.828125 C 39.0625 61.777344 38.496094 61.703125 37.9375 61.597656 L 37.9375 51.183594 C 38.398438 51.117188 38.890625 51.058594 39.4375 51.011719 C 39.980469 50.953125 40.511719 50.917969 41.046875 50.917969 C 41.957031 50.917969 42.6875 51.011719 43.261719 51.183594 C 43.828125 51.347656 44.277344 51.566406 44.597656 51.839844 C 44.925781 52.109375 45.148438 52.414062 45.261719 52.742188 C 45.375 53.078125 45.433594 53.414062 45.433594 53.75 C 45.433594 54.257812 45.292969 54.707031 45.007812 55.101562 C 44.738281 55.496094 44.367188 55.808594 43.902344 56.039062 C 44.710938 56.300781 45.269531 56.660156 45.550781 57.113281 C 45.851562 57.5625 46 58.039062 46 58.53125 M 40.324219 57.078125 L 40.324219 59.992188 C 40.496094 60.015625 40.675781 60.03125 40.875 60.039062 C 41.078125 60.054688 41.277344 60.054688 41.472656 60.054688 C 41.742188 60.054688 42.015625 60.039062 42.269531 60.007812 C 42.53125 59.957031 42.753906 59.882812 42.949219 59.777344 C 43.152344 59.664062 43.328125 59.507812 43.457031 59.308594 C 43.582031 59.105469 43.644531 58.84375 43.644531 58.53125 C 43.644531 58.015625 43.457031 57.644531 43.089844 57.421875 C 42.71875 57.195312 42.226562 57.078125 41.613281 57.078125 L 40.324219 57.078125 M 41.257812 55.308594 C 41.867188 55.308594 42.324219 55.191406 42.636719 54.964844 C 42.949219 54.71875 43.105469 54.390625 43.105469 53.972656 C 43.105469 53.714844 43.054688 53.519531 42.964844 53.363281 C 42.875 53.207031 42.753906 53.085938 42.597656 53.003906 C 42.449219 52.914062 42.261719 52.855469 42.054688 52.832031 C 41.851562 52.796875 41.636719 52.78125 41.414062 52.78125 C 41.234375 52.78125 41.046875 52.78125 40.847656 52.796875 C 40.660156 52.804688 40.480469 52.824219 40.324219 52.847656 L 40.324219 55.308594 L 41.257812 55.308594 "/>
<path style=" stroke:none;fill-rule:evenodd;fill:rgb(97.647059%,97.647059%,97.647059%);fill-opacity:1;" d="M 24 6 L 30 6 L 30 12 L 24 12 Z M 24 6 "/>
<path style=" stroke:none;fill-rule:evenodd;fill:rgb(97.647059%,97.647059%,97.647059%);fill-opacity:1;" d="M 18 12 L 24 12 L 24 18 L 18 18 Z M 18 12 "/>
<path style=" stroke:none;fill-rule:evenodd;fill:rgb(97.647059%,97.647059%,97.647059%);fill-opacity:1;" d="M 24 18 L 30 18 L 30 24 L 24 24 Z M 24 18 "/>
<path style=" stroke:none;fill-rule:evenodd;fill:rgb(97.647059%,97.647059%,97.647059%);fill-opacity:1;" d="M 18 24 L 24 24 L 24 30 L 18 30 Z M 18 24 "/>
<path style=" stroke:none;fill-rule:evenodd;fill:rgb(97.647059%,97.647059%,97.647059%);fill-opacity:1;" d="M 18 32 L 30 32 L 30 44 L 18 44 Z M 18 32 "/>
</g>
</svg>

<svg xmlns="http://www.w3.org/2000/svg" viewBox="0 0 64 64">
 <g>
  <path d="m 10.672 0 c -1.375 0 -2.672 1.355 -2.672 2.789 l 0 58.42 c 0 1.355 1.375 2.789 2.672 2.789 l 42.656 0 c 1.297 0 2.672 -1.434 2.672 -2.789 l 0 -43.21 l -18 -18 m -27.328 0" style="fill:#c19553;fill-opacity:1;stroke:none;fill-rule:nonzero"/>
  <path d="m 8 48 l 0 13.336 c 0 1.297 1.375 2.664 2.664 2.664 l 42.672 0 c 1.289 0 2.664 -1.367 2.664 -2.664 l 0 -13.336 m -48 0" style="fill:#000;fill-opacity:0.196;stroke:none;fill-rule:nonzero"/>
  <path d="m 42 18 l 14 14 l 0 -14 m -14 0" style="fill:#000;fill-opacity:0.196;stroke:none;fill-rule:nonzero"/>
  <path d="m 23.22 62 c -1.695 0 -2.984 -0.484 -3.879 -1.461 c -0.895 -0.965 -1.344 -2.344 -1.344 -4.141 c 0 -0.887 0.141 -1.68 0.41 -2.371 c 0.27 -0.695 0.648 -1.277 1.125 -1.754 c 0.492 -0.484 1.074 -0.844 1.73 -1.09 c 0.672 -0.254 1.402 -0.379 2.188 -0.379 c 0.438 0 0.813 0.031 1.148 0.098 c 0.352 0.059 0.656 0.133 0.91 0.215 c 0.262 0.082 0.477 0.164 0.648 0.254 c 0.18 0.098 0.313 0.164 0.402 0.215 l -0.625 1.695 c -0.293 -0.172 -0.656 -0.32 -1.082 -0.434 c -0.418 -0.125 -0.895 -0.188 -1.434 -0.188 c -0.379 0 -0.746 0.063 -1.109 0.188 c -0.352 0.113 -0.664 0.32 -0.949 0.605 c -0.27 0.281 -0.5 0.656 -0.68 1.125 c -0.176 0.477 -0.258 1.066 -0.258 1.77 c 0 1.223 0.238 2.168 0.699 2.824 c 0.484 0.648 1.262 0.973 2.328 0.973 c 0.625 0 1.141 -0.063 1.535 -0.188 c 0.418 -0.129 0.746 -0.254 0.992 -0.383 l 0.605 1.68 c -0.336 0.188 -0.793 0.359 -1.375 0.523 c -0.574 0.148 -1.23 0.223 -1.988 0.223" style="fill:#fff;fill-opacity:1;stroke:none;fill-rule:nonzero"/>
  <path d="m 38 0 l 17.984 18 l -15.227 0 c -1.348 0 -2.758 -1.426 -2.758 -2.773 m 0 -15.227" style="fill:#fff;fill-opacity:0.392;stroke:none;fill-rule:nonzero"/>
  <path d="m 34.16 61.777 l -0.566 -2.484 l -3.199 0 l -0.547 2.484 l -2.484 0 c 0.574 -2.113 1.148 -4.04 1.73 -5.773 c 0.582 -1.746 1.148 -3.402 1.688 -4.961 l 2.602 0 c 0.574 1.574 1.129 3.238 1.688 5.01 c 0.566 1.754 1.125 3.664 1.648 5.723 l -2.559 0 m -2.141 -8.652 c -0.121 0.402 -0.246 0.789 -0.367 1.156 c -0.098 0.363 -0.207 0.723 -0.305 1.082 c -0.098 0.348 -0.188 0.699 -0.277 1.051 c -0.074 0.363 -0.156 0.73 -0.23 1.117 l 2.344 0 c -0.074 -0.387 -0.156 -0.754 -0.227 -1.117 c -0.074 -0.352 -0.176 -0.703 -0.273 -1.051 c -0.09 -0.359 -0.195 -0.719 -0.313 -1.082 c -0.105 -0.367 -0.219 -0.754 -0.352 -1.156" style="fill:#fff;fill-opacity:1;stroke:none;fill-rule:nonzero"/>
  <path d="m 18 0 l 6 0 l 0 6 l -6 0 m 0 -6" style="fill:#f9f9f9;fill-opacity:1;stroke:none;fill-rule:evenodd"/>
  <path d="m 46 58.53 c 0 0.648 -0.121 1.188 -0.367 1.633 c -0.246 0.426 -0.586 0.77 -1.012 1.039 c -0.418 0.254 -0.918 0.438 -1.5 0.551 c -0.566 0.105 -1.18 0.156 -1.844 0.156 c -0.527 0 -1.074 -0.023 -1.648 -0.082 c -0.566 -0.051 -1.133 -0.125 -1.691 -0.23 l 0 -10.414 c 0.461 -0.066 0.953 -0.125 1.5 -0.172 c 0.543 -0.059 1.074 -0.094 1.609 -0.094 c 0.91 0 1.641 0.094 2.215 0.266 c 0.566 0.164 1.016 0.383 1.336 0.656 c 0.328 0.27 0.551 0.574 0.664 0.902 c 0.113 0.336 0.172 0.672 0.172 1.01 c 0 0.508 -0.141 0.957 -0.426 1.352 c -0.27 0.395 -0.641 0.707 -1.105 0.938 c 0.809 0.262 1.367 0.621 1.648 1.074 c 0.301 0.449 0.449 0.926 0.449 1.418 m -5.676 -1.453 l 0 2.914 c 0.172 0.023 0.352 0.039 0.551 0.047 c 0.203 0.016 0.402 0.016 0.598 0.016 c 0.27 0 0.543 -0.016 0.797 -0.047 c 0.262 -0.051 0.484 -0.125 0.68 -0.23 c 0.203 -0.113 0.379 -0.27 0.508 -0.469 c 0.125 -0.203 0.188 -0.465 0.188 -0.777 c 0 -0.516 -0.188 -0.887 -0.555 -1.109 c -0.371 -0.227 -0.863 -0.344 -1.477 -0.344 l -1.289 0 m 0.934 -1.77 c 0.609 0 1.066 -0.117 1.379 -0.344 c 0.313 -0.246 0.469 -0.574 0.469 -0.992 c 0 -0.258 -0.051 -0.453 -0.141 -0.609 c -0.09 -0.156 -0.211 -0.277 -0.367 -0.359 c -0.148 -0.09 -0.336 -0.148 -0.543 -0.172 c -0.203 -0.035 -0.418 -0.051 -0.641 -0.051 c -0.18 0 -0.367 0 -0.566 0.016 c -0.188 0.008 -0.367 0.027 -0.523 0.051 l 0 2.461 l 0.934 0" style="fill:#fff;fill-opacity:1;stroke:none;fill-rule:nonzero"/>
  <path d="m 24 6 l 6 0 l 0 6 l -6 0 m 0 -6" style="fill:#f9f9f9;fill-opacity:1;stroke:none;fill-rule:evenodd"/>
  <path d="m 18 12 l 6 0 l 0 6 l -6 0 m 0 -6" style="fill:#f9f9f9;fill-opacity:1;stroke:none;fill-rule:evenodd"/>
  <path d="m 24 18 l 6 0 l 0 6 l -6 0 m 0 -6" style="fill:#f9f9f9;fill-opacity:1;stroke:none;fill-rule:evenodd"/>
  <path d="m 18 24 l 6 0 l 0 6 l -6 0 m 0 -6" style="fill:#f9f9f9;fill-opacity:1;stroke:none;fill-rule:evenodd"/>
  <path d="m 18 32 l 12 0 l 0 12 l -12 0 m 0 -12" style="fill:#f9f9f9;fill-opacity:1;stroke:none;fill-rule:evenodd"/>
 </g>
</svg>
